X: 6532
T: Catching The Buzz
R: jig
M: 6/8
K: Adorian
efg afg|efd ecA|efg afg|efd e2 e|
efg afg|efd ecA|dec dec|dcB A2 e|
efg afg|efd ecA|efg afg|efe efg|
a2 f2 g2|efd ecA|dec dec|dcB A2 A|
|:A2 d c2 e-|-edf edc|A2 d c2 f-|-fed cBG|
A2 d c2 e-|-edf edc|dec dec|1 dcB A2 A:|2 dcB A2 e||

